X:22
T:Northern Schottische
C:from the playing of John Barry
I:abc2nwc
L:1/8
K:G
G3/2A/2|B2B2B/2 d7/2|c3/2B/2 c3/2d/2 e4|\
d3/2g/2 f3/2e/2 d3/2c/2 B3/2A/2|G3/2A/2  (3BAG D2G3/2A/2|
B2B2B/2 d7/2|c3/2B/2 c3/2d/2 e4|d3/2g/2 f3/2e/2 d3/2c/2 B3/2A/2|G2B2G2:|
|:d2|c/2A3/2 F2F2e2|d/2B3/2 G2G2g2|f2A3/2B/2 c2e2|d3/2B/2 G3/2A/2 B2d2|
c/2A3/2 F2F2e2|d/2B3/2 G2G2g2|f2A3/2B/2 c3/2d/2 e3/2f/2|g2g2g2:|
|:G3/2A/2|B2B2B2A3/2G/2|F3/2E/2 F3/2G/2 A2A3/2B/2|\
c2c2c2B3/2A/2|G3/2F/2 G3/2A/2 B2G3/2A/2|
B2B2B2A3/2G/2|F3/2E/2 F3/2G/2 A2A3/2B/2|c2c2c2B3/2A/2|G2B2G2:|


